X:1
T:James Gibb editions
T:Psalm 109 (Becker) - Schütz
%%score [ ( 1 2 ) ( 3 4 ) ]
L:1/8
Q:1/4=98
M:2/2
K:C
V:1 treble nm="Soprano Alto"
V:2 treble 
V:3 bass nm="Tenor Bass"
V:4 bass 
V:1
"^Cornelius Becker\n(1561-1604)""^Psalm 109, SWV 207""^Heinrich Schütz\n(1585-1672)" A4 G4 | %1
w: ~Herr Gott,|
w: wa- rum|
 A2 c4 B2 | B2 A2 B4 | A4 B4 | d2 c4 B2 | A4 ^G4 :|[M:2/2] A4 c4 | e2 A4 B2 | c2 d2 e4 | c4 B4 | %10
w: des ich mich|rühm- te viel|in mei-|nen gro- ßen|Nö- ten,|Der Gott-|los tut auf|sei- nen Mund|und läs-|
w: schweigst du nun|jetzt so still|und willt|mich nicht ver-|tre- ten?|||||
 c2 d4 B2 | c2 B2 A4 | G4 A4 | c2 B4 A2 | (A4 ^G4) | A8 |] %16
w: tert auf mich|oh- ne Grund|mit sei-|ner fal- schen|Zun\- *|gen.|
w: ||||||
V:2
 E4 E4 | F2 E4 B,2 | E2 ^F2 ^G4 | E4 =G4 | G2 G4 G2 | E4 E4 :|[M:2/2] E4 A4 | A2 E4 B,2 | %8
 E2 A2 ^G4 | E4 =G4 | G2 F4 E2 | E2 G2 ^F4 | E4 ^F4 | G2 G4 E2 | E8 | E8 |] %16
V:3
 C4 B,4 | D2 C4 E2 | C2 C2 B,4 | C4 D4 | B,2 E4 D2 | C4 B,4 :|[M:2/2] C4 E4 | C2 C4 E2 | %8
 C2 A,2 B,4 | A,4 D4 | G,2 A,4 G,2 | %11
"^12. Herr, steh mir bei, verlaß mich nicht um deines Namens wegen,\ndein Gnad, mein Trost und Zuversicht, wird meiner allzeit pflegen,\ndieweil ich arm und elend bin, mein Herz im Leib, mein Mut und Sinn\nvon Trauren ist zerschlagen.\n\n14. Ich muß sein derer Hohn und Spott, die mir vorübergehen,\nsie schütteln über mich den Kopf, wenn sie mein Elend sehen,\nsteh du bei mir, mein treuer Gott, und hilf mir aus der großen Not\nnach deiner reichen Gnade.\n\n17. Ich will dem Herren danken sehr aus meines Herzens Grunde,\nin der Gemein seins Namens Ehr rühmen aus vollem Munde,\nder Herre steht zur rechten Seit und hilft den Armen, wenn die Leut\nverdammen sie zum Tode." G,2 D2 D4 | %12
 B,4 D4 | E2 D4 C2 | B,8 | ^C8 |] %16
V:4
 A,4 E,4 | D,2 A,4 ^G,2 | A,2 A,2 E,4 | A,4 =G,4 | G,2 C,4 G,2 | A,4 E,4 :|[M:2/2] A,4 A,4 | %7
 A,2 A,4 ^G,2 | A,2 F,2 E,4 | A,4 =G,4 | E,2 D,4 E,2 | C,2 G,,2 D,4 | E,4 D,4 | C,2 G,4 A,2 | E,8 | %15
 A,8 |] %16

